static/fa/svgs/solid/igloo.svg

<svg xmlns="http://www.w3.org/2000/svg" viewBox="0 0 576 512"><!--! Font Awesome Free 6.1.1 by @fontawesome - https://fontawesome.com License - https://fontawesome.com/license/free (Icons: CC BY 4.0, Fonts: SIL OFL 1.1, Code: MIT License) Copyright 2022 Fonticons, Inc.--><path d="M320 160H48.5C100.2 82.82 188.1 32 288 32c10.8 0 21.5.6 32 1.76V160zm32-120.86C424.9 55.67 487.2 99.82 527.5 160H352V39.14zM96 192v128H0c0-46 10.77-89.4 29.94-128H96zm96 128h-64V192h320v128h-64v32h192v80c0 26.5-21.5 48-48 48H352V352c0-35.3-28.7-64-64-64s-64 28.7-64 64v128H48c-26.51 0-48-21.5-48-48v-80h192v-32zm288-128h66.1c19.1 38.6 29.9 82 29.9 128h-96V192z"/></svg>

<svg xmlns="http://www.w3.org/2000/svg" viewBox="0 0 576 512"><!--! Font Awesome Free 6.1.1 by @fontawesome - https://fontawesome.com License - https://fontawesome.com/license/free (Icons: CC BY 4.0, Fonts: SIL OFL 1.1, Code: MIT License) Copyright 2022 Fonticons, Inc. --><path d="M320 160H48.5C100.2 82.82 188.1 32 288 32C298.8 32 309.5 32.6 320 33.76V160zM352 39.14C424.9 55.67 487.2 99.82 527.5 160H352V39.14zM96 192V320H0C0 274 10.77 230.6 29.94 192H96zM192 320H128V192H448V320H384V352H576V432C576 458.5 554.5 480 528 480H352V352C352 316.7 323.3 288 288 288C252.7 288 224 316.7 224 352V480H48C21.49 480 0 458.5 0 432V352H192V320zM480 192H546.1C565.2 230.6 576 274 576 320H480V192z"/></svg>
